source/svgs/bowtie/uE918-brand-mtm.svg

<svg xmlns="http://www.w3.org/2000/svg" viewBox="0 0 448 448" enable-background="new 0 0 448 448"><path d="M224 217.4l-117.4-76.7 117.4-76.7 119.5 76.7-119.5 76.7zm160.1 2.9l-.1 32.7c44.3 32 40.3 67-38.1 68.3-8.7.2-25.8-3.6-35.4-4.6l41.5-29.7v-115l-128 79.2-128-80.5v63.9c-3-2.5-6.3-4.8-9.1-7.4-49.6-45.1-31.8-76.2-10.9-99.6l21.4-23.9c-2.1-7.7-6.2-5.6-11.3-5.6-103.1.6-95.6 67.6-22.1 134.4 9.7 8.8 20.4 17.3 31.9 25.6v45.4l128.1 80.5 54.2-36.1c22.9 4.5 70 2.3 89.7 1.8 88.3-1.9 111.4-59.7 16.2-129.4z"/></svg>

<svg xmlns="http://www.w3.org/2000/svg" viewBox="0 0 448 448"><path d="M224 217.4l-117.4-76.7L224 64l119.5 76.7L224 217.4zm160.1 2.9L384 253c44.3 32 40.3 67-38.1 68.3-8.7.2-25.8-3.6-35.4-4.6L352 287V172l-128 79.2-128-80.5v63.9c-3-2.5-6.3-4.8-9.1-7.4C37.3 182.1 55.1 151 76 127.6l21.4-23.9c-2.1-7.7-6.2-5.6-11.3-5.6C-17 98.7-9.5 165.7 64 232.5c9.7 8.8 20.4 17.3 31.9 25.6v45.4L224 384l54.2-36.1c22.9 4.5 70 2.3 89.7 1.8 88.3-1.9 111.4-59.7 16.2-129.4z"/></svg>
